svgs/regular/square-4.svg

<svg xmlns="http://www.w3.org/2000/svg" viewBox="0 0 448 512"><!-- Font Awesome Pro 6.0.0-alpha2 by @fontawesome - https://fontawesome.com License - https://fontawesome.com/license (Commercial License) --><path d="M296 272H288V221.344C288 208.094 277.25 197.344 264 197.344S240 208.094 240 221.344V272H174.469L222.047 161.5C227.281 149.312 221.672 135.188 209.484 129.969C197.266 124.656 183.188 130.344 177.953 142.5L115.953 286.5C112.766 293.938 113.516 302.438 117.953 309.188S129.922 320 138 320H240V360C240 373.25 250.75 384 264 384S288 373.25 288 360V320H296C309.25 320 320 309.25 320 296S309.25 272 296 272ZM384 32H64C28.654 32 0 60.654 0 96V416C0 451.346 28.654 480 64 480H384C419.346 480 448 451.346 448 416V96C448 60.654 419.346 32 384 32ZM400 416C400 424.822 392.822 432 384 432H64C55.178 432 48 424.822 48 416V96C48 87.178 55.178 80 64 80H384C392.822 80 400 87.178 400 96V416Z"/></svg>

<svg xmlns="http://www.w3.org/2000/svg" viewBox="0 0 448 512"><!--! Font Awesome Pro 6.4.0 by @fontawesome - https://fontawesome.com License - https://fontawesome.com/license (Commercial License) Copyright 2023 Fonticons, Inc. --><path d="M384 80c8.8 0 16 7.2 16 16V416c0 8.8-7.2 16-16 16H64c-8.8 0-16-7.2-16-16V96c0-8.8 7.2-16 16-16H384zM64 32C28.7 32 0 60.7 0 96V416c0 35.3 28.7 64 64 64H384c35.3 0 64-28.7 64-64V96c0-35.3-28.7-64-64-64H64zm127.6 97.2c-12.6-4.2-26.2 2.6-30.4 15.2l-48 144c-2.4 7.3-1.2 15.4 3.3 21.6s11.8 10 19.5 10H240v40c0 13.3 10.7 24 24 24s24-10.7 24-24V320h8c13.3 0 24-10.7 24-24s-10.7-24-24-24h-8V216c0-13.3-10.7-24-24-24s-24 10.7-24 24v56H169.3l37.5-112.4c4.2-12.6-2.6-26.2-15.2-30.4z"/></svg>
